build/system/UserDeleteOutline.svg

<svg xmlns="http://www.w3.org/2000/svg" fill="none" viewBox="0 0 24 24" focusable="false"><path d="M0 0H24V24H0z"/><path fill="#74767B" fill-rule="evenodd" d="M7.56456 7.96802C7.26365 5.32002 9.33497 3 12 3C14.6651 3 16.7364 5.32002 16.4355 7.96803L16.1734 10.274C15.9322 12.3966 14.1363 14 12 14C9.86377 14 8.06781 12.3966 7.8266 10.274L7.56456 7.96802ZM15.1438 7.82124L14.8817 10.1272C14.7152 11.5928 13.4751 12.7 12 12.7C10.5249 12.7 9.28484 11.5928 9.11829 10.1272L8.85625 7.82124C8.64297 5.94439 10.1111 4.3 12 4.3C13.889 4.3 15.3571 5.94439 15.1438 7.82124ZM20.8142 15.1856C21.0633 15.4441 21.0557 15.8556 20.7971 16.1046L18.9048 17.928L20.7972 19.7514C21.0557 20.0005 21.0633 20.412 20.8142 20.6705C20.5652 20.929 20.1537 20.9367 19.8952 20.6876L17.968 18.8307L16.0408 20.6876C15.7823 20.9367 15.3708 20.929 15.1217 20.6705C14.8727 20.412 14.8803 20.0005 15.1388 19.7514L17.0312 17.928L15.1388 16.1046C14.8803 15.8556 14.8727 15.4441 15.1218 15.1856C15.3709 14.9271 15.7823 14.9194 16.0409 15.1685L17.968 17.0254L19.8951 15.1685C20.1536 14.9194 20.5651 14.9271 20.8142 15.1856ZM10.1464 15C7.33419 15 4.89931 16.9532 4.28926 19.6984L4.18932 20.1481C4.09217 20.5853 4.42482 21 4.87265 21L12.6571 21C13.0161 21 13.3071 20.709 13.3071 20.35C13.3071 19.991 13.0161 19.7 12.6571 19.7L5.62966 19.7C6.20474 17.6982 8.04051 16.3 10.1464 16.3L12.6571 16.3C13.0161 16.3 13.3071 16.009 13.3071 15.65C13.3071 15.291 13.0161 15 12.6571 15L10.1464 15Z"/></svg>

<svg xmlns="http://www.w3.org/2000/svg" fill="none" viewBox="0 0 24 24" focusable="false"><path fill="#74767B" fill-rule="evenodd" d="M12 3C9.33 3 7.26 5.32 7.56 7.96l.26 2.31A4.21 4.21 0 0 0 12 14c2.13 0 3.93-1.61 4.17-3.73l.26-2.31A4.46 4.46 0 0 0 12 3m2.88 7.12.26-2.3c.21-1.88-1.26-3.53-3.14-3.53-1.89 0-3.36 1.65-3.15 3.53l.26 2.3A2.91 2.91 0 0 0 12 12.7c1.47 0 2.71-1.11 2.88-2.58m5.93 5.06c.25.26.24.67-.02.92l-1.89 1.82 1.89 1.83c.26.25.27.66.02.92-.25.25-.66.26-.92.01l-1.93-1.85-1.92 1.85c-.26.25-.67.24-.92-.01a.66.66 0 0 1 .01-.92l1.9-1.83-1.9-1.82a.66.66 0 0 1-.01-.92c.25-.26.66-.27.92-.02l1.92 1.86 1.93-1.86c.26-.25.67-.24.92.02M10.14 15c-2.81 0-5.25 1.95-5.86 4.69l-.1.45c-.09.44.24.86.69.86h7.78c.36 0 .65-.3.65-.65 0-.36-.29-.65-.65-.65H5.62a4.71 4.71 0 0 1 4.52-3.41h2.51c.36 0 .65-.29.65-.64 0-.36-.29-.65-.65-.65z"/></svg>
